src/icons/logos/sass.svg

<svg width="254" height="221" viewBox="0 0 254 221" fill="none" xmlns="http://www.w3.org/2000/svg">
<path d="M218.147 125.186C209.308 125.232 201.627 127.361 195.195 130.507C192.835 125.834 190.475 121.669 190.058 118.615C189.596 115.052 189.04 112.877 189.596 108.62C190.151 104.363 192.65 98.301 192.603 97.8382C192.557 97.3755 192.048 95.2006 186.958 95.1544C181.868 95.1081 177.472 96.1261 176.963 97.468C176.454 98.81 175.482 101.864 174.834 105.011C173.955 109.638 164.654 126.158 159.333 134.811C157.62 131.433 156.14 128.471 155.816 126.111C155.353 122.548 154.798 120.374 155.353 116.116C155.908 111.859 158.407 105.797 158.361 105.335C158.315 104.872 157.806 102.697 152.715 102.651C147.625 102.604 143.229 103.622 142.72 104.964C142.211 106.306 141.656 109.453 140.592 112.507C139.527 115.561 127.172 143.14 123.933 150.266C122.267 153.922 120.833 156.837 119.815 158.827C119.815 158.827 119.769 158.966 119.63 159.197C118.751 160.909 118.242 161.835 118.242 161.835C118.242 161.835 118.242 161.835 118.242 161.881C117.547 163.13 116.807 164.287 116.437 164.287C116.159 164.287 115.65 160.956 116.529 156.421C118.38 146.842 122.776 131.942 122.73 131.433C122.73 131.155 123.563 128.564 119.861 127.222C116.252 125.88 114.956 128.101 114.632 128.101C114.308 128.101 114.077 128.888 114.077 128.888C114.077 128.888 118.103 112.137 106.395 112.137C99.0842 112.137 88.9965 120.142 83.999 127.361C80.8524 129.073 74.1427 132.729 66.9702 136.662C64.2401 138.189 61.4174 139.716 58.7798 141.15C58.5947 140.965 58.4096 140.734 58.2245 140.549C44.0647 125.417 17.8738 114.728 18.9844 94.414C19.4008 87.0102 21.9459 67.5752 69.2839 43.9756C108.246 24.772 139.25 30.0935 144.618 41.8933C152.299 58.7369 128.005 90.018 87.7472 94.5528C72.3843 96.2649 64.3326 90.3419 62.2966 88.1207C60.168 85.8071 59.8441 85.6682 59.0574 86.131C57.7618 86.8251 58.5947 88.9074 59.0574 90.1105C60.2605 93.2571 65.2118 98.81 73.5874 101.54C80.9912 103.946 98.9917 105.288 120.787 96.8665C145.173 87.4266 164.238 61.1894 158.639 39.2094C153.039 16.9055 116.02 9.54793 80.9912 21.9956C60.168 29.3994 37.5864 41.0603 21.3443 56.2381C2.04818 74.2849 -1.00589 89.9717 0.243501 96.5426C4.73205 119.865 36.8923 135.042 49.7564 146.287C49.1086 146.657 48.507 146.981 47.998 147.259C41.566 150.451 17.0409 163.269 10.9327 176.828C3.99168 192.19 12.0433 203.204 17.3648 204.684C33.8845 209.265 50.867 201.029 59.9829 187.424C69.0988 173.82 67.9883 156.143 63.7774 148.045C63.7311 147.953 63.6848 147.86 63.5923 147.768C65.2581 146.796 66.9702 145.778 68.6361 144.806C71.9215 142.863 75.1607 141.058 77.9371 139.577C76.3638 143.881 75.207 149.017 74.6517 156.421C73.9576 165.12 77.5207 176.411 82.1943 180.853C84.2766 182.797 86.7291 182.843 88.3024 182.843C93.7627 182.843 96.2152 178.308 98.9454 172.941C102.277 166.37 105.285 158.734 105.285 158.734C105.285 158.734 101.537 179.373 111.717 179.373C115.419 179.373 119.167 174.56 120.833 172.108C120.833 172.154 120.833 172.154 120.833 172.154C120.833 172.154 120.925 172.015 121.111 171.691C121.481 171.09 121.712 170.719 121.712 170.719C121.712 170.719 121.712 170.673 121.712 170.627C123.193 168.035 126.525 162.159 131.476 152.395C137.862 139.808 144.016 124.075 144.016 124.075C144.016 124.075 144.571 127.916 146.469 134.302C147.579 138.05 149.893 142.168 151.744 146.148C150.263 148.23 149.338 149.387 149.338 149.387C149.338 149.387 149.337 149.387 149.384 149.433C148.181 151.007 146.885 152.719 145.451 154.385C140.407 160.4 134.391 167.295 133.558 169.285C132.586 171.645 132.818 173.357 134.669 174.745C136.011 175.763 138.417 175.902 140.869 175.763C145.404 175.439 148.597 174.329 150.17 173.635C152.623 172.755 155.492 171.413 158.176 169.424C163.127 165.768 166.135 160.539 165.857 153.644C165.718 149.85 164.469 146.055 162.942 142.492C163.405 141.845 163.821 141.197 164.284 140.549C172.104 129.119 178.166 116.579 178.166 116.579C178.166 116.579 178.721 120.42 180.619 126.806C181.544 130.045 183.441 133.562 185.107 136.986C177.75 142.955 173.215 149.896 171.595 154.431C168.68 162.853 170.947 166.647 175.251 167.526C177.194 167.943 179.971 167.017 182.007 166.138C184.598 165.305 187.652 163.871 190.567 161.742C195.519 158.087 200.285 152.997 200.007 146.102C199.868 142.955 199.036 139.855 197.879 136.847C204.126 134.256 212.177 132.821 222.45 134.024C244.476 136.616 248.826 150.359 247.993 156.143C247.16 161.927 242.533 165.074 241.006 166.046C239.479 167.017 238.97 167.341 239.109 168.035C239.294 169.054 240.034 169.007 241.33 168.822C243.134 168.498 252.898 164.148 253.315 153.506C254.009 139.901 241.052 125.047 218.147 125.186ZM48.2294 182.473C40.9181 190.432 30.7379 193.44 26.3419 190.895C21.622 188.165 23.4729 176.411 32.45 167.989C37.9103 162.853 44.9439 158.087 49.6176 155.171C50.6819 154.524 52.2552 153.598 54.1524 152.441C54.4763 152.256 54.6614 152.164 54.6614 152.164C55.0316 151.932 55.4018 151.701 55.772 151.469C59.0574 163.501 55.9108 174.097 48.2294 182.473ZM101.444 146.287C98.8991 152.488 93.5776 168.359 90.3385 167.48C87.5621 166.74 85.8499 154.709 89.7832 142.816C91.773 136.847 95.9839 129.721 98.4364 126.944C102.416 122.502 106.812 121.021 107.876 122.826C109.218 125.186 103.017 142.4 101.444 146.287ZM145.358 167.295C144.294 167.85 143.276 168.221 142.813 167.943C142.489 167.758 143.276 167.017 143.276 167.017C143.276 167.017 148.782 161.094 150.957 158.411C152.206 156.837 153.687 154.986 155.261 152.904C155.261 153.089 155.261 153.32 155.261 153.506C155.261 160.585 148.412 165.352 145.358 167.295ZM179.23 159.567C178.444 159.012 178.583 157.161 181.22 151.377C182.238 149.11 184.644 145.315 188.763 141.659C189.225 143.14 189.549 144.575 189.503 145.917C189.457 154.847 183.071 158.179 179.23 159.567Z" fill="currentColor"/>
</svg>

<svg xmlns="http://www.w3.org/2000/svg" width="254" height="221" fill="none">
    <path fill="currentColor"
        d="M218.147 125.186c-8.839.046-16.52 2.175-22.952 5.321-2.36-4.673-4.72-8.838-5.137-11.892-.462-3.563-1.018-5.738-.462-9.995.555-4.257 3.054-10.319 3.007-10.782-.046-.462-.555-2.637-5.645-2.684-5.09-.046-9.486.972-9.995 2.314-.509 1.342-1.481 4.396-2.129 7.543-.879 4.627-10.18 21.147-15.501 29.8-1.713-3.378-3.193-6.34-3.517-8.7-.463-3.563-1.018-5.737-.463-9.995.555-4.257 3.054-10.319 3.008-10.781-.046-.463-.555-2.638-5.646-2.684-5.09-.047-9.486.971-9.995 2.313-.509 1.342-1.064 4.489-2.128 7.543-1.065 3.054-13.42 30.633-16.659 37.759a213.366 213.366 0 0 1-4.118 8.561s-.046.139-.185.37c-.879 1.712-1.388 2.638-1.388 2.638v.046c-.695 1.249-1.435 2.406-1.805 2.406-.278 0-.787-3.331.092-7.866 1.851-9.579 6.247-24.479 6.201-24.988 0-.278.833-2.869-2.869-4.211-3.609-1.342-4.905.879-5.229.879-.324 0-.555.787-.555.787s4.026-16.751-7.682-16.751c-7.31 0-17.398 8.005-22.396 15.224a6270.48 6270.48 0 0 0-17.029 9.301c-2.73 1.527-5.553 3.054-8.19 4.488-.185-.185-.37-.416-.556-.601-14.16-15.132-40.35-25.821-39.24-46.135.417-7.404 2.962-26.839 50.3-50.438 38.962-19.204 69.966-13.883 75.334-2.083 7.681 16.844-16.613 48.125-56.87 52.66-15.364 1.712-23.415-4.211-25.451-6.432-2.129-2.314-2.453-2.453-3.24-1.99-1.295.694-.462 2.776 0 3.98 1.203 3.146 6.155 8.699 14.53 11.429 7.404 2.406 25.405 3.748 47.2-4.674 24.386-9.44 43.451-35.677 37.852-57.657-5.6-22.304-42.619-29.661-77.648-17.213-20.823 7.403-43.405 19.064-59.647 34.242C2.048 74.285-1.006 89.972.244 96.543c4.488 23.322 36.648 38.499 49.512 49.744-.647.37-1.249.694-1.758.972-6.432 3.192-30.957 16.01-37.065 29.569-6.941 15.362 1.11 26.376 6.432 27.856 16.52 4.581 33.502-3.655 42.618-17.26 9.116-13.604 8.005-31.281 3.794-39.379-.046-.092-.092-.185-.185-.277 1.666-.972 3.378-1.99 5.044-2.962a247.07 247.07 0 0 1 9.301-5.229c-1.573 4.304-2.73 9.44-3.285 16.844-.694 8.699 2.869 19.99 7.542 24.432 2.083 1.944 4.535 1.99 6.108 1.99 5.46 0 7.913-4.535 10.643-9.902 3.332-6.571 6.34-14.207 6.34-14.207s-3.748 20.639 6.432 20.639c3.702 0 7.45-4.813 9.116-7.265v.046s.092-.139.278-.463c.37-.601.601-.972.601-.972v-.092c1.481-2.592 4.813-8.468 9.764-18.232 6.386-12.587 12.54-28.32 12.54-28.32s.555 3.841 2.453 10.227c1.11 3.748 3.424 7.866 5.275 11.846-1.481 2.082-2.406 3.239-2.406 3.239l.046.046c-1.203 1.574-2.499 3.286-3.933 4.952-5.044 6.015-11.06 12.91-11.893 14.9-.972 2.36-.74 4.072 1.111 5.46 1.342 1.018 3.748 1.157 6.2 1.018 4.535-.324 7.728-1.434 9.301-2.128 2.453-.88 5.322-2.222 8.006-4.211 4.951-3.656 7.959-8.885 7.681-15.78-.139-3.794-1.388-7.589-2.915-11.152.463-.647.879-1.295 1.342-1.943 7.82-11.43 13.882-23.97 13.882-23.97s.555 3.841 2.453 10.227c.925 3.239 2.822 6.756 4.488 10.18-7.357 5.969-11.892 12.91-13.512 17.445-2.915 8.422-.648 12.216 3.656 13.095 1.943.417 4.72-.509 6.756-1.388 2.591-.833 5.645-2.267 8.56-4.396 4.952-3.655 9.718-8.745 9.44-15.64-.139-3.147-.971-6.247-2.128-9.255 6.247-2.591 14.298-4.026 24.571-2.823 22.026 2.592 26.376 16.335 25.543 22.119-.833 5.784-5.46 8.931-6.987 9.903-1.527.971-2.036 1.295-1.897 1.989.185 1.019.925.972 2.221.787 1.804-.324 11.568-4.674 11.985-15.316.694-13.605-12.263-28.459-35.168-28.32ZM48.229 182.473c-7.31 7.959-17.491 10.967-21.887 8.422-4.72-2.73-2.87-14.484 6.108-22.906 5.46-5.136 12.494-9.902 17.168-12.818 1.064-.647 2.637-1.573 4.534-2.73.324-.185.51-.277.51-.277l1.11-.695c3.285 12.032.139 22.628-7.543 31.004Zm53.215-36.186c-2.545 6.201-7.866 22.072-11.106 21.193-2.776-.74-4.488-12.771-.555-24.664 1.99-5.969 6.2-13.095 8.653-15.872 3.98-4.442 8.376-5.923 9.44-4.118 1.342 2.36-4.859 19.574-6.432 23.461Zm43.914 21.008c-1.064.555-2.082.926-2.545.648-.324-.185.463-.926.463-.926s5.506-5.923 7.681-8.606c1.249-1.574 2.73-3.425 4.304-5.507v.602c0 7.079-6.849 11.846-9.903 13.789Zm33.872-7.728c-.786-.555-.647-2.406 1.99-8.19 1.018-2.267 3.424-6.062 7.543-9.718.462 1.481.786 2.916.74 4.258-.046 8.93-6.432 12.262-10.273 13.65Z" />
</svg>
